X:13054
T:March Past
R:March
C:Trad.
O:England; Eynsham
Z:Paul Hardy's Session Tunebook 2022 (see www.paulhardy.net). Creative Commons cc by-nc-sa licenced.
M:4/4
L:1/8
Q:1/4=160
K:G
"G"G4 G3A|B2A2 Bd3|G4 "D"F3A|"G"B2d2 "D"A4|"G"G4 G3A|B2A2 B2d2|"C"g4 g3f|"G"g2B2 "D"A4:|
|:"G"B2d2 "D"d2ef|"G"g2d2 "C"e2c2|"G"B2d2 "D"d2ef|"G"g2B2 "D"A4|"G"B2d2 "D"d2ef|"G"g2d2 "C"e2d2|"G"B2d2 "D"d2ef|"G"g3f g2A2:|

